src/shared/assets/icons/dashboard.svg

<svg width="22" height="24" viewBox="0 0 22 24" fill="none" xmlns="http://www.w3.org/2000/svg">
<path fill-rule="evenodd" clip-rule="evenodd" d="M4 3C2.34315 3 1 4.34315 1 6V8C1 9.65685 2.34315 11 4 11H6C7.65685 11 9 9.65685 9 8V6C9 4.34315 7.65685 3 6 3H4ZM14 3C12.3431 3 11 4.34315 11 6V8C11 9.65685 12.3431 11 14 11H16C17.6569 11 19 9.65685 19 8V6C19 4.34315 17.6569 3 16 3H14ZM1 16C1 14.3431 2.34315 13 4 13H6C7.65685 13 9 14.3431 9 16V18C9 19.6569 7.65685 21 6 21H4C2.34315 21 1 19.6569 1 18V16ZM14 13C12.3431 13 11 14.3431 11 16V18C11 19.6569 12.3431 21 14 21H16C17.6569 21 19 19.6569 19 18V16C19 14.3431 17.6569 13 16 13H14Z" fill="#D9D9D9"/>
</svg>

<svg xmlns="http://www.w3.org/2000/svg" width="22" height="24" fill="none"><path fill="#D9D9D9" fill-rule="evenodd" d="M4 3a3 3 0 0 0-3 3v2a3 3 0 0 0 3 3h2a3 3 0 0 0 3-3V6a3 3 0 0 0-3-3H4Zm10 0a3 3 0 0 0-3 3v2a3 3 0 0 0 3 3h2a3 3 0 0 0 3-3V6a3 3 0 0 0-3-3h-2ZM1 16a3 3 0 0 1 3-3h2a3 3 0 0 1 3 3v2a3 3 0 0 1-3 3H4a3 3 0 0 1-3-3v-2Zm13-3a3 3 0 0 0-3 3v2a3 3 0 0 0 3 3h2a3 3 0 0 0 3-3v-2a3 3 0 0 0-3-3h-2Z" clip-rule="evenodd"/></svg>
